icon-themes/colibre_svg/vcl/res/autoscroll_s.svg

<svg viewBox="0 0 256 256" xmlns="http://www.w3.org/2000/svg"><path d="m130 128a28 28 0 0 0 -28 28 28 28 0 0 0 28 28 28 28 0 0 0 28-28 28 28 0 0 0 -28-28zm0 8a20 20 0 0 1 20 20 20 20 0 0 1 -20 20 20 20 0 0 1 -20-20 20 20 0 0 1 20-20zm-36 56v10.15625l31.40625 53.84375h9.1875l31.40625-53.84375v-10.15625h-64zm8 8h56l-28 48z" fill="#fff"/><path d="m130 136a20 20 0 0 0 -20 20 20 20 0 0 0 20 20 20 20 0 0 0 20-20 20 20 0 0 0 -20-20zm-28 64 28 48 28-48z"/></svg>

<svg xmlns="http://www.w3.org/2000/svg" viewBox="0 0 256 256">
  <path
     style="fill:#ffffff"
     d="M 130 128 A 28 28 0 0 0 102 156 A 28 28 0 0 0 130 184 A 28 28 0 0 0 158 156 A 28 28 0 0 0 130 128 z M 130 136 A 20 20 0 0 1 150 156 A 20 20 0 0 1 130 176 A 20 20 0 0 1 110 156 A 20 20 0 0 1 130 136 z M 94 192 L 94 202.15625 L 125.40625 256 L 134.59375 256 L 166 202.15625 L 166 192 L 102 192 L 94 192 z M 102 200 L 158 200 L 130 248 L 102 200 z "
     />
  <path
     style="fill:#000000"
     d="M 130 136 A 20 20 0 0 0 110 156 A 20 20 0 0 0 130 176 A 20 20 0 0 0 150 156 A 20 20 0 0 0 130 136 z M 102 200 L 130 248 L 158 200 L 102 200 z "
     />
</svg>
